; generated by PrusaSlicer 2.4.2+win64 on 2022-09-22 at 20:37:20 UTC

; 

; external perimeters extrusion width = 0.65mm
; perimeters extrusion width = 0.65mm
; infill extrusion width = 0.65mm
; solid infill extrusion width = 0.65mm
; top infill extrusion width = 0.60mm
; support material extrusion width = 0.60mm
; first layer extrusion width = 0.62mm

M73 P0 R97
M201 X1000 Y1000 Z100 E1000 ; sets maximum accelerations, mm/sec^2
M203 X200 Y200 Z10 E60 ; sets maximum feedrates, mm / sec
M204 P500 R1000 T500 ; sets acceleration (P, T) and retract acceleration (R), mm/sec^2
M205 X10.00 Y12.00 Z0.40 E1.25 ; sets the jerk limits, mm/sec
M205 S0 T0 ; sets the minimum extruding and travel feed rate, mm/sec
M107
M190 S55 ; set bed temperature and wait for it to be reached
M104 S210 ; set temperature
;TYPE:Custom
G28 ;Home
G29
G1 Z50 F240
G1 X2 Y10 F3000
G92 E0
G1 F200 E3
M900 K0
G92 E0
M117
M109 S210 ; set temperature and wait for it to be reached
G21 ; set units to millimeters
G90 ; use absolute coordinates
M83 ; use relative distances for extrusion
; Filament gcode
M107
;LAYER_CHANGE
;Z:0.4
;HEIGHT:0.4
;BEFORE_LAYER_CHANGE
G92 E0
;0.4


G1 E-.8 F2700
G1 Z.3 F9000
G1 Z.4
;AFTER_LAYER_CHANGE
;0.4
G1 Z.7
G1 X95.099 Y95.456
G1 Z.4
G1 E.8 F2700
;TYPE:Skirt/Brim
;WIDTH:0.62
G1 F1500
G1 X96.135 Y94.503 E.12499
G1 X97.286 Y93.694 E.12498
M73 P0 R96
G1 X98.533 Y93.041 E.125
G1 X99.853 Y92.556 E.125
G1 X101.143 Y92.259 E.11757
G1 X107.403 Y91.284 E.56273
G1 X113.681 Y90.442 E.56273
G1 X119.976 Y89.734 E.56274
G1 X126.285 Y89.16 E.56274
G1 X132.605 Y88.722 E.56273
G1 X138.933 Y88.418 E.56273
G1 X145.265 Y88.249 E.56274
G1 X151.6 Y88.216 E.56273
G1 X157.901 Y88.317 E.55983
G1 X164.232 Y88.553 E.56273
G1 X170.556 Y88.924 E.56274
G1 X176.871 Y89.43 E.56273
G1 X183.173 Y90.071 E.56273
G1 X189.46 Y90.846 E.56274
G1 X198.971 Y92.28 E.85442
G1 X200.338 Y92.614 E.12499
G1 X201.467 Y93.041 E.10724
G1 X202.278 Y93.442 E.0803
G1 X203.465 Y94.196 E.12499
G1 X204.544 Y95.099 E.12499
G1 X205.497 Y96.135 E.12499
G1 X206.306 Y97.286 E.12498
G1 X206.876 Y98.35 E.10725
G1 X207.386 Y99.662 E.12499
G1 X207.621 Y100.535 E.0803
G1 X208.24 Y104.238 E.33353
G1 X209.154 Y110.54 E.56564
G1 X210.266 Y119.976 E.84408
G1 X210.84 Y126.285 E.56274
G1 X211.445 Y135.735 E.84117
G1 X211.682 Y142.066 E.56273
G1 X211.784 Y148.433 E.56564
G1 X211.748 Y154.872 E.57202
G1 X211.447 Y164.232 E.83189
G1 X211.076 Y170.556 E.56274
G1 X210.567 Y176.903 E.56564
G1 X209.558 Y186.319 E.84117
G1 X208.712 Y192.63 E.56564
G1 X207.72 Y198.971 E.57017
G1 X207.444 Y200.147 E.10724
G1 X206.959 Y201.467 E.12499
G1 X206.306 Y202.714 E.12499
G1 X205.793 Y203.479 E.08179
G1 X204.901 Y204.544 E.1235
G1 X203.865 Y205.497 E.12498
G1 X202.714 Y206.306 E.12499
G1 X201.65 Y206.876 E.10725
G1 X200.815 Y207.223 E.0803
G1 X199.465 Y207.621 E.12499
G1 X192.597 Y208.716 E.6178
G1 X183.173 Y209.929 E.84408
G1 X173.715 Y210.84 E.84408
G1 X164.265 Y211.445 E.84117
G1 X157.797 Y211.685 E.57492
G1 X148.4 Y211.784 E.8348
G1 X138.933 Y211.582 E.84118
G1 X129.444 Y211.076 E.84408
G1 X119.976 Y210.266 E.84408
G1 X110.54 Y209.154 E.84408
G1 X101.029 Y207.72 E.85442
G1 X99.662 Y207.386 E.12498
G1 X98.533 Y206.959 E.10725
G1 X97.722 Y206.558 E.0803
G1 X96.535 Y205.804 E.12499
G1 X95.456 Y204.901 E.12499
G1 X94.503 Y203.865 E.12499
G1 X93.694 Y202.714 E.12498
G1 X93.124 Y201.65 E.10725
G1 X92.614 Y200.338 E.12499
G1 X92.379 Y199.465 E.0803
G1 X91.284 Y192.597 E.6178
G1 X90.071 Y183.173 E.84408
G1 X89.163 Y173.747 E.84118
G1 X88.555 Y164.265 E.84407
G1 X88.315 Y157.797 E.57492
G1 X88.216 Y148.4 E.8348
G1 X88.418 Y138.933 E.84118
G1 X88.924 Y129.444 E.84408
G1 X89.734 Y119.976 E.84408
G1 X90.846 Y110.54 E.84408
G1 X92.28 Y101.029 E.85442
G1 X92.556 Y99.853 E.10724
G1 X93.041 Y98.533 E.12499
G1 X93.694 Y97.286 E.12499
G1 X94.196 Y96.535 E.0803
G1 X95.042 Y95.525 E.117
G1 X95.45 Y95.866 F9000
G1 F1500
G1 X96.46 Y94.927 E.12251
G1 X97.553 Y94.156 E.11879
G1 X98.738 Y93.534 E.11881
G1 X99.992 Y93.072 E.11881
G1 X101.228 Y92.787 E.11268
G1 X107.476 Y91.813 E.56172
G1 X113.744 Y90.972 E.56172
G1 X120.028 Y90.265 E.56172
G1 X126.325 Y89.693 E.56173
G1 X132.634 Y89.255 E.56172
G1 X138.95 Y88.952 E.56171
G1 X145.271 Y88.784 E.56173
G1 X151.594 Y88.75 E.56172
G1 X157.917 Y88.852 E.56172
G1 X164.209 Y89.087 E.55932
G1 X173.702 Y89.695 E.84496
G1 X179.999 Y90.268 E.56173
G1 X186.283 Y90.975 E.56172
G1 X192.55 Y91.816 E.56172
G1 X198.772 Y92.787 E.55932
G1 X200.008 Y93.072 E.11268
G1 X201.262 Y93.534 E.11881
G1 X202.01 Y93.904 E.07411
G1 X203.14 Y94.62 E.11881
G1 X204.167 Y95.477 E.1188
G1 X205.073 Y96.46 E.1188
G1 X205.844 Y97.553 E.11879
G1 X206.397 Y98.587 E.10415
G1 X206.88 Y99.834 E.1188
G1 X207.097 Y100.64 E.07411
G1 X207.717 Y104.35 E.33413
G1 X209.025 Y113.717 E.84016
G1 X209.735 Y120.028 E.56412
G1 X210.307 Y126.325 E.56173
G1 X210.912 Y135.764 E.84016
G1 X211.149 Y142.11 E.56412
G1 X211.25 Y148.433 E.56172
G1 X211.216 Y154.756 E.56172
G1 X211.047 Y161.077 E.56173
G1 X210.737 Y167.498 E.571
G1 X210.038 Y176.825 E.83089
G1 X209.395 Y183.143 E.56412
G1 X208.184 Y192.55 E.84257
G1 X207.196 Y198.866 E.56787
G1 X206.928 Y200.008 E.10414
G1 X206.466 Y201.262 E.1188
G1 X205.844 Y202.446 E.11881
G1 X205.37 Y203.153 E.0756
G1 X204.523 Y204.167 E.11731
G1 X203.54 Y205.073 E.1188
G1 X202.447 Y205.844 E.1188
G1 X201.413 Y206.397 E.10415
G1 X200.627 Y206.723 E.0756
G1 X199.36 Y207.097 E.11731
G1 X192.523 Y208.187 E.61498
G1 X183.116 Y209.398 E.84256
G1 X173.675 Y210.307 E.84256
G1 X164.236 Y210.912 E.84016
G1 X157.786 Y211.151 E.5734
G1 X148.406 Y211.25 E.83328
G1 X138.923 Y211.047 E.84256
G1 X129.478 Y210.543 E.84016
G1 X120.028 Y209.735 E.84256
G1 X110.608 Y208.624 E.84257
G1 X101.134 Y207.196 E.8511
G1 X99.834 Y206.88 E.1188
G1 X98.738 Y206.466 E.10415
G1 X97.975 Y206.088 E.07561
G1 X96.86 Y205.38 E.11731
G1 X95.833 Y204.523 E.1188
G1 X94.927 Y203.539 E.1188
G1 X94.156 Y202.447 E.1188
G1 X93.603 Y201.413 E.10415
G1 X93.12 Y200.166 E.1188
G1 X92.903 Y199.36 E.07411
G1 X91.813 Y192.523 E.61499
G1 X90.602 Y183.116 E.84256
G1 X89.693 Y173.675 E.84257
G1 X89.088 Y164.236 E.84015
G1 X88.849 Y157.786 E.5734
G1 X88.75 Y148.406 E.83328
G1 X88.953 Y138.923 E.84257
G1 X89.457 Y129.478 E.84016
G1 X90.265 Y120.028 E.84256
G1 X91.376 Y110.608 E.84257
G1 X92.804 Y101.134 E.8511
G1 X93.072 Y99.992 E.10414
G1 X93.534 Y98.738 E.1188
G1 X94.156 Y97.554 E.1188
G1 X94.62 Y96.86 E.07411
G1 X95.392 Y95.935 E.10707
G1 E-.56 F2700
;WIPE_START
G1 F7200
G1 X95.858 Y95.495 E-.228
;WIPE_END
G1 E-.012 F2700
G1 Z.7 F9000
G1 X102.729 Y98.23
G1 Z.4
G1 E.8 F2700
;TYPE:Support material
G1 F1500
G1 X103.071 Y98.272 E.03061
G1 X103.408 Y98.343 E.03061
G1 X103.738 Y98.441 E.03061
G1 X104.059 Y98.567 E.03061
G1 X104.369 Y98.718 E.03061
G1 X104.665 Y98.894 E.03061
G1 X104.946 Y99.095 E.03061
G1 X105.208 Y99.317 E.03061
G1 X105.452 Y99.561 E.03061
G1 X105.675 Y99.824 E.03061
G1 X105.875 Y100.104 E.03061
G1 X106.051 Y100.4 E.03061
G1 X106.203 Y100.71 E.03061
G1 X106.328 Y101.031 E.03061
G1 X106.426 Y101.361 E.03061
G1 X106.497 Y101.698 E.03061
G1 X106.54 Y102.04 E.03061
G1 X106.554 Y102.385 E.03061
G1 X106.54 Y102.729 E.03061
G1 X106.497 Y103.071 E.03061
G1 X106.426 Y103.408 E.03061
G1 X106.328 Y103.738 E.03061
G1 X106.203 Y104.06 E.03061
G1 X106.052 Y104.369 E.03061
G1 X105.875 Y104.665 E.03061
G1 X105.675 Y104.946 E.03061
G1 X105.452 Y105.208 E.03061
G1 X105.208 Y105.452 E.03061
G1 X104.946 Y105.675 E.03061
G1 X104.665 Y105.875 E.03061
G1 X104.369 Y106.052 E.03061
G1 X104.06 Y106.203 E.03061
G1 X103.738 Y106.328 E.03061
G1 X103.408 Y106.426 E.03061
G1 X103.071 Y106.497 E.03061
G1 X102.729 Y106.54 E.03061
G1 X102.385 Y106.554 E.03061
G1 X102.04 Y106.54 E.03061
G1 X101.698 Y106.497 E.03061
G1 X101.361 Y106.426 E.03061
G1 X101.031 Y106.328 E.03061
G1 X100.71 Y106.203 E.03061
G1 X100.4 Y106.052 E.03061
G1 X100.104 Y105.875 E.03061
G1 X99.824 Y105.675 E.03061
G1 X99.561 Y105.452 E.03061
G1 X99.317 Y105.209 E.03061
G1 X99.095 Y104.946 E.03061
G1 X98.894 Y104.665 E.03061
G1 X98.718 Y104.369 E.03061
G1 X98.567 Y104.059 E.03061
G1 X98.441 Y103.738 E.03061
G1 X98.343 Y103.408 E.03061
G1 X98.272 Y103.071 E.03061
G1 X98.23 Y102.729 E.03061
G1 X98.215 Y102.385 E.03061
G1 X98.23 Y102.04 E.03061
G1 X98.272 Y101.698 E.03061
G1 X98.343 Y101.361 E.03061
G1 X98.441 Y101.031 E.03061
G1 X98.567 Y100.71 E.03061
G1 X98.718 Y100.4 E.03061
G1 X98.894 Y100.104 E.03061
G1 X99.095 Y99.824 E.03061
G1 X99.317 Y99.561 E.03061
G1 X99.561 Y99.317 E.03061
G1 X99.824 Y99.095 E.03061
G1 X100.104 Y98.894 E.03061
G1 X100.4 Y98.718 E.03061
G1 X100.71 Y98.567 E.03061
G1 X101.031 Y98.441 E.03061
G1 X101.361 Y98.343 E.03061
G1 X101.698 Y98.272 E.03061
G1 X102.04 Y98.23 E.03061
G1 X102.649 Y98.226 E.05406
G1 X105.487 Y104.795 F9000
G1 F1500
G1 X105.487 Y100.392 E.39118
G1 X105.295 Y100.119 E.02958
G1 X104.893 Y99.682 E.05278
G1 X104.893 Y105.088 E.48019
G1 X104.65 Y105.295 E.02841
G1 X104.3 Y105.533 E.03762
G1 X104.3 Y99.236 E.55937
G1 X104.14 Y99.141 E.01651
M73 P1 R96
G1 X103.706 Y98.945 E.0423
G1 X103.706 Y105.825 E.61115
G1 X103.29 Y105.96 E.03887
G1 X103.113 Y105.997 E.0161
G1 X103.113 Y98.772 E.6418
G1 X102.689 Y98.709 E.03803
G1 X102.519 Y98.702 E.01512
G1 X102.519 Y106.067 E.65425
G1 X101.926 Y106.041 E.05277
G1 X101.926 Y98.728 E.64958
G1 X101.479 Y98.809 E.0403
G1 X101.332 Y98.853 E.01364
G1 X101.332 Y105.916 E.62741
G1 X100.903 Y105.762 E.04049
G1 X100.739 Y105.682 E.01627
G1 X100.739 Y99.088 E.58576
G1 X100.367 Y99.297 E.03786
G1 X100.145 Y99.456 E.02427
G1 X100.145 Y105.314 E.52034
G1 X99.887 Y105.098 E.02988
G1 X99.552 Y104.741 E.04348
G1 X99.552 Y100.028 E.41869
G1 X99.297 Y100.367 E.03769
G1 X99.141 Y100.629 E.02708
G1 X98.958 Y101.029 E.03904
G1 X98.958 Y104.303 E.2908
G1 E-.56 F2700
;WIPE_START
G1 F7200
G1 X98.958 Y103.663 E-.228
;WIPE_END
G1 E-.012 F2700
G1 Z.7 F9000
G1 X197.96 Y193.46
G1 Z.4
G1 E.8 F2700
G1 F1500
G1 X198.302 Y193.503 E.03061
G1 X198.639 Y193.574 E.03061
G1 X198.969 Y193.672 E.03061
G1 X199.29 Y193.797 E.03061
G1 X199.6 Y193.948 E.03061
G1 X199.896 Y194.125 E.03061
G1 X200.176 Y194.325 E.03061
G1 X200.439 Y194.548 E.03061
G1 X200.683 Y194.791 E.03061
G1 X200.905 Y195.054 E.03061
G1 X201.106 Y195.335 E.03061
G1 X201.282 Y195.631 E.03061
G1 X201.433 Y195.94 E.03061
G1 X201.559 Y196.262 E.03061
G1 X201.657 Y196.592 E.03061
G1 X201.728 Y196.929 E.03061
G1 X201.77 Y197.271 E.03061
G1 X201.785 Y197.615 E.03061
G1 X201.77 Y197.96 E.03061
G1 X201.728 Y198.302 E.03061
G1 X201.657 Y198.639 E.03061
G1 X201.559 Y198.969 E.03061
G1 X201.433 Y199.29 E.03061
G1 X201.282 Y199.6 E.03061
G1 X201.106 Y199.896 E.03061
G1 X200.905 Y200.176 E.03061
G1 X200.683 Y200.439 E.03061
G1 X200.439 Y200.683 E.03061
G1 X200.176 Y200.905 E.03061
G1 X199.896 Y201.106 E.03061
G1 X199.6 Y201.282 E.03061
G1 X199.29 Y201.433 E.03061
G1 X198.969 Y201.559 E.03061
G1 X198.639 Y201.657 E.03061
G1 X198.302 Y201.728 E.03061
G1 X197.96 Y201.77 E.03061
G1 X197.615 Y201.785 E.03061
G1 X197.271 Y201.77 E.03061
G1 X196.929 Y201.728 E.03061
G1 X196.592 Y201.657 E.03061
G1 X196.262 Y201.559 E.03061
G1 X195.94 Y201.433 E.03061
G1 X195.631 Y201.282 E.03061
G1 X195.335 Y201.106 E.03061
G1 X195.054 Y200.905 E.03061
G1 X194.791 Y200.683 E.03061
G1 X194.548 Y200.439 E.03061
G1 X194.325 Y200.176 E.03061
G1 X194.125 Y199.896 E.03061
G1 X193.948 Y199.6 E.03061
G1 X193.797 Y199.29 E.03061
G1 X193.672 Y198.969 E.03061
G1 X193.574 Y198.639 E.03061
G1 X193.503 Y198.302 E.03061
G1 X193.46 Y197.96 E.03061
G1 X193.446 Y197.615 E.03061
G1 X193.46 Y197.271 E.03061
G1 X193.503 Y196.929 E.03061
G1 X193.574 Y196.592 E.03061
G1 X193.672 Y196.262 E.03061
G1 X193.797 Y195.94 E.03061
G1 X193.949 Y195.631 E.03061
G1 X194.125 Y195.335 E.03061
G1 X194.325 Y195.054 E.03061
G1 X194.548 Y194.791 E.03061
G1 X194.791 Y194.548 E.03061
G1 X195.054 Y194.325 E.03061
G1 X195.335 Y194.125 E.03061
G1 X195.631 Y193.948 E.03061
G1 X195.94 Y193.797 E.03061
G1 X196.262 Y193.672 E.03061
G1 X196.592 Y193.574 E.03061
G1 X196.929 Y193.503 E.03061
G1 X197.271 Y193.46 E.03061
G1 X197.88 Y193.457 E.05406
G1 X201.042 Y199.533 F9000
G1 F1500
G1 X201.042 Y196.26 E.2908
G1 X200.859 Y195.86 E.03904
G1 X200.703 Y195.598 E.02708
G1 X200.448 Y195.259 E.03769
G1 X200.448 Y199.972 E.41869
G1 X200.113 Y200.329 E.04348
G1 X199.855 Y200.544 E.02988
G1 X199.855 Y194.686 E.52034
G1 X199.632 Y194.528 E.02427
G1 X199.261 Y194.318 E.03786
G1 X199.261 Y200.912 E.58576
G1 X199.097 Y200.993 E.01627
G1 X198.668 Y201.147 E.04049
G1 X198.668 Y194.084 E.62741
G1 X198.521 Y194.04 E.01364
G1 X198.074 Y193.959 E.0403
G1 X198.074 Y201.272 E.64958
G1 X197.481 Y201.298 E.05277
G1 X197.481 Y193.933 E.65425
G1 X197.311 Y193.94 E.01512
G1 X196.887 Y194.003 E.03803
G1 X196.887 Y201.228 E.6418
G1 X196.71 Y201.191 E.0161
G1 X196.294 Y201.055 E.03887
G1 X196.294 Y194.175 E.61115
G1 X195.86 Y194.372 E.0423
G1 X195.7 Y194.467 E.01651
G1 X195.7 Y200.764 E.55937
G1 X195.35 Y200.526 E.03762
G1 X195.107 Y200.318 E.02841
G1 X195.107 Y194.912 E.48019
G1 X194.705 Y195.35 E.05278
G1 X194.513 Y195.622 E.02958
G1 X194.513 Y200.026 E.39118
G1 E-.56 F2700
;WIPE_START
G1 F7200
G1 X194.513 Y199.386 E-.228
;WIPE_END
G1 E-.012 F2700
G1 Z.7 F9000
G1 X119.616 Y126.224
G1 Z.4
G1 E.8 F2700
;TYPE:Perimeter
G1 F1500
G1 X119.242 Y126.588 E.04641
G1 X118.878 Y126.826 E.03863
G1 X118.48 Y127.001 E.03863
G1 X118.078 Y127.103 E.03677
G1 X117.632 Y127.144 E.03984
G1 X117.191 Y127.108 E.03927
G1 X116.77 Y127.001 E.03863
G1 X116.372 Y126.826 E.03863
G1 X116.007 Y126.588 E.03863
G1 X115.703 Y126.308 E.03677
G1 X115.424 Y125.957 E.03984
G1 X115.213 Y125.568 E.03927
G1 X115.072 Y125.157 E.03863
G1 X115.001 Y124.728 E.03863
G1 X115.001 Y124.293 E.03863
G1 X115.072 Y123.864 E.03863
G1 X115.207 Y123.473 E.03677
G1 X115.416 Y123.076 E.03984
G1 X115.688 Y122.727 E.03927
G1 X116.007 Y122.433 E.03863
G1 X116.372 Y122.195 E.03863
G1 X116.77 Y122.02 E.03863
G1 X117.191 Y121.913 E.03863
G1 X117.604 Y121.879 E.03677
G1 X118.051 Y121.912 E.03984
G1 X118.48 Y122.02 E.03927
G1 X118.878 Y122.195 E.03863
G1 X119.242 Y122.433 E.03863
G1 X119.562 Y122.727 E.03863
G1 X119.829 Y123.07 E.03863
G1 X120.036 Y123.453 E.03863
G1 X120.177 Y123.864 E.03863
G1 X120.249 Y124.293 E.03863
G1 X120.249 Y124.728 E.03863
G1 X120.177 Y125.157 E.03863
G1 X120.036 Y125.568 E.03863
G1 X119.829 Y125.951 E.03863
G1 X119.672 Y126.153 E.02277
G1 X119.195 Y125.896 F9000
G1 F1500
G1 X118.913 Y126.165 E.03465
G1 X118.623 Y126.355 E.03077
G1 X118.306 Y126.494 E.03077
G1 X117.987 Y126.575 E.02915
G1 X117.629 Y126.608 E.03197
G1 X117.28 Y126.579 E.03116
G1 X116.944 Y126.494 E.03076
G1 X116.627 Y126.355 E.03077
G1 X116.337 Y126.165 E.03077
G1 X116.095 Y125.943 E.02916
G1 X115.871 Y125.661 E.03197
G1 X115.704 Y125.353 E.03116
G1 X115.592 Y125.025 E.03077
G1 X115.535 Y124.684 E.03077
G1 X115.535 Y124.337 E.03077
G1 X115.592 Y123.996 E.03077
G1 X115.698 Y123.685 E.02916
G1 X115.866 Y123.367 E.03197
G1 X116.082 Y123.09 E.03116
G1 X116.337 Y122.856 E.03077
G1 X116.627 Y122.666 E.03077
G1 X116.944 Y122.527 E.03077
G1 X117.28 Y122.442 E.03077
G1 X117.607 Y122.415 E.02915
G1 X117.966 Y122.441 E.03197
G1 X118.306 Y122.527 E.03116
G1 X118.623 Y122.666 E.03077
G1 X118.913 Y122.856 E.03077
G1 X119.168 Y123.09 E.03077
G1 X119.38 Y123.364 E.03077
G1 X119.545 Y123.668 E.03077
G1 X119.658 Y123.996 E.03077
G1 X119.715 Y124.337 E.03077
G1 X119.715 Y124.684 E.03077
G1 X119.658 Y125.025 E.03077
G1 X119.545 Y125.353 E.03077
G1 X119.38 Y125.658 E.03077
G1 X119.25 Y125.825 E.01884
G1 X118.773 Y125.568 F9000
;TYPE:External perimeter
G1 F1500
G1 X118.584 Y125.742 E.0229
G1 X118.368 Y125.883 E.0229
G1 X118.132 Y125.987 E.0229
G1 X117.897 Y126.047 E.02154
G1 X117.626 Y126.072 E.02411
G1 X117.368 Y126.05 E.02305
G1 X117.118 Y125.987 E.0229
G1 X116.882 Y125.883 E.0229
G1 X116.666 Y125.742 E.0229
G1 X116.488 Y125.578 E.02154
G1 X116.319 Y125.366 E.02411
G1 X116.195 Y125.138 E.02305
G1 X116.111 Y124.894 E.0229
G1 X116.069 Y124.639 E.0229
G1 X116.069 Y124.382 E.0229
G1 X116.111 Y124.127 E.0229
G1 X116.19 Y123.898 E.02154
G1 X116.317 Y123.658 E.02411
G1 X116.476 Y123.453 E.02305
